X:1
T: The Cardiff Caledonians
C:
R:Jig
Q:180
K:D
M:6/8
L:1/16
A2|d6 D6|E2F2E2 D6|E4E2 e4d2|c2B2A2 g2f2e2|d6 D6|E2F2E2 D4F2|G4B2 A4d2|c2B2c2 d4A2|
d6 D6|E2F2E2 D6|E4E2 e4d2|c2B2A2 g2f2e2|d6 D6|E2F2E2 D4F2|G4B2 A4d2|c2B2c2 d6|
e6 A6|A2B2c2 d6|B4g2 A4F2|G2E2E2 E6|e6 A6|A2B2c2 d4F2|G4B2 A4d2|c2B2c2 d6|
e6 A6|A2B2c2 d4A2|G4B2 A4F2|G2E2E2 E4G2|F2G2A2 G2A2B2|A2B2c2 d4F2|G4B2 A4d2|c2B2c2 d6||
